X: 10301
M: 2/4
L: 1/8
K: C
|:\
cTc/B/ cG | cege | fdcB | (c/B/c/d/) cG |\
cc/B/ cG | cege | fdcB | c2 c2 :|
|:\
(fe)e2 | dcTc2 | Bcde | f/g/f/e/ d2 |\
fee2 | dcTc2 | ec e/d/c/B/ | {B}c2 c2 :|
|:\
e3 g | {B}c3 e | (^cdfd) | {c}B2AG |\


